src/img/social/twitter.svg

<svg width="48" height="48" viewBox="0 0 48 48" fill="none" xmlns="http://www.w3.org/2000/svg">
    <path fill-rule="evenodd" clip-rule="evenodd" d="M24 48C37.2548 48 48 37.2548 48 24C48 10.7452 37.2548 0 24 0C10.7452 0 0 10.7452 0 24C0 37.2548 10.7452 48 24 48Z" fill="#E5E5E5"/>
    <path d="M35 17.1309C34.1908 17.4922 33.3203 17.7365 32.4074 17.8456C33.3395 17.2834 34.0548 16.3938 34.3924 15.3321C33.5203 15.853 32.5539 16.2308 31.5262 16.4345C30.7029 15.5517 29.5298 15 28.2308 15C25.7386 15 23.7172 17.035 23.7172 19.5441C23.7172 19.9003 23.7573 20.247 23.8347 20.5798C20.0836 20.3903 16.7576 18.5814 14.5312 15.8313C14.1428 16.5023 13.9199 17.2834 13.9199 18.1161C13.9199 19.6922 14.7174 21.0837 15.9278 21.8984C15.1883 21.875 14.4918 21.6707 13.8836 21.3294C13.8833 21.3487 13.8833 21.368 13.8833 21.387C13.8833 23.5888 15.4397 25.4252 17.5041 25.8424C17.1258 25.9467 16.7262 26.002 16.3152 26.002C16.0237 26.002 15.7413 25.9738 15.466 25.921C16.0402 27.7259 17.7068 29.0398 19.6823 29.0767C18.1373 30.2957 16.1914 31.0219 14.0761 31.0219C13.7126 31.0219 13.3524 31.0006 13 30.9582C14.9964 32.248 17.3695 33 19.9183 33C28.2204 33 32.7605 26.0759 32.7605 20.0704C32.7605 19.8735 32.7562 19.6773 32.7474 19.4828C33.63 18.8423 34.3951 18.0422 35 17.1309Z" fill="#344154"/>
</svg>

<svg width="48" height="48" fill="none" xmlns="http://www.w3.org/2000/svg"><path fill-rule="evenodd" clip-rule="evenodd" d="M24 48c13.255 0 24-10.745 24-24S37.255 0 24 0 0 10.745 0 24s10.745 24 24 24z" fill="#E5E5E5"/><path d="M35 17.13c-.81.362-1.68.607-2.593.716a4.551 4.551 0 001.985-2.514 8.998 8.998 0 01-2.866 1.102A4.495 4.495 0 0028.231 15c-2.492 0-4.514 2.035-4.514 4.544 0 .356.04.703.118 1.036-3.751-.19-7.077-1.999-9.304-4.749a4.548 4.548 0 00-.611 2.285c0 1.576.797 2.968 2.008 3.782a4.458 4.458 0 01-2.044-.569v.058a4.54 4.54 0 003.62 4.455 4.472 4.472 0 01-2.038.079 4.522 4.522 0 004.216 3.156A9.017 9.017 0 0113 30.958 12.705 12.705 0 0019.918 33c8.302 0 12.843-6.924 12.843-12.93 0-.197-.005-.393-.014-.587A9.187 9.187 0 0035 17.13z" fill="#344154"/></svg>
